X:103
T:Ma Charmante Cadet
M:9/8
L:1/8
N:Assez anim
N:La Bourre 4th edition 1929, page 99
Z:Steve Mansfield www.lesession.co.uk June 2012
K:Am
A | B2 e d2 c B c B | A3 B ^F G !fermata! A3 | 
B c d e2 e e B c | d2 e B e e d2 c | 
B6 B c d | e3 d2 c B c B | 
A3 E ^F G A A e | e3 d c B !fermata! A3 |]
<end>
<start>
